X:1
T:Title
%%score { ( 1 4 ) | ( 2 3 ) }
L:1/8
Q:1/4=100
M:6/8
K:G
V:1 treble nm="Grand Piano"
V:4 treble 
V:2 treble 
V:3 treble 
V:1
 B2 B BAG | [EA]2 [EG] E3 | z GB d2 B | [GB]3 .[FA]3 | B2 B BAG | [EA]2 [EG] E3 | z GB d2 B | %7
w: C.~Harold~Lowden * * * *|||||||
 A3 z3 | d2 d d2 B | e2 d [Fc]3 | [Ac]2 [Ac] [Ac]2 [FA] | [Fd]2 [DAc] B3 | d2 B BAG | %13
w: ||||||
 [EA]2 [EG] E3 | z GB d2 B | [FA]3 z3 |] %16
w: |||
V:2
 z3 .D3 | [C,C]2 [C,C] [C,G,C]3 | [G,B,]2[K:treble] [G,DG] [G,B,G]2 [G,DG] | [D,D]3 .[D,D]3 | %4
 z3 .D3 | [C,C]2 [C,C] [C,G,C]3 | [G,B,]2[K:treble] [G,DG] [G,B,G]2 [G,DG] | .[E,DF]3 .[G,B,]3 | %8
 [G,B,G]2 [G,B,G] [G,B,G]2 [G,DG] | [G,CG]2 [G,B,G][K:bass] [D,D]3 | [D,D]2 [D,D] [D,D]2 [D,D] | %11
 D,E,F,[K:treble] [G,DG]3 | z3 .D3[K:bass] | [C,C]2 [C,C] [C,G,C]3 | %14
 [G,B,]2[K:treble] [G,DG] [G,B,G]2 [G,DG] | .[D,D]3 .[G,B,]3 |] %16
V:3
 [G,DG]2 [G,DG] [G,G]-[G,CG][G,B,] | x6 | x2[K:treble] x4 | x6 | %4
 [G,DG]2 [G,DG] [G,G]-[G,CG][G,B,] | x6 | x2[K:treble] x4 | x6 | x6 | x3[K:bass] x3 | x6 | %11
 .A,3[K:treble] z3 | [G,B,G]2 [G,DG] [G,G]-[G,CG][K:bass][G,B,D] | x6 | x2[K:treble] x4 | x6 |] %16
V:4
 x6 | x6 | .D3 z3 | x6 | x6 | x6 | .D3 z3 | z2 C .G3 | x6 | x6 | x6 | x6 | x6 | x6 | .D3 z3 | %15
 z2 C .G3 |] %16

